X:720
%%etbk:tnset id:401,pos:1,rep:3x,ant:
%%etbk:wsite https://thesession.org/tunes/765
%%etbk:pldat 2016-09-17T14:22,2016-09-15T18:05,2016-09-13T16:56,2016-09-11T15:25,2016-09-10T15:26,2016-09-07T17:11,2016-09-06T17:12,2016-09-04T10:56,2016-09-03T10:40,2016-08-21T12:03,2016-08-06T13:52,2016-07-29T17:11,2016-07-24T16:42,2016-05-25T17:19,2016-03-31T17:42,2016-01-01T15:44,2015-12-24T15:39,2015-12-22T16:08,2015-12-21T18:51,2015-11-29T15:40,2015-08-23T15:14,2015-08-19T17:34,2015-08-15T16:20,2015-08-10T18:26,2015-07-19T14:11,2015-07-17T15:59,2015-06-06T14:32,2015-06-03T18:09,2015-06-01T16:33,2015-05-20T15:53,2015-05-10T10:46,2015-05-06T16:18
T: The Sailor On The Rock
Z: Piano Box Version by Martin Fleischmann
H: Created 2015-04-29 /  Last Modified 2015-05-19
R: reel
M: 4/4
L: 1/8
K: Dmaj
!3!defd !2!B!1!A!2!F!5!B|!4!AD!2!FD !2!F!4!A!1!AB|!3!defd !2!BA!2!F!5!B|1 !1!ABd!5!f !4!efdB:|2 !1!A!2!B!1!d!3!f efde||
!3!faag fed!2!f|!3!gfga be~e2|faag fedB|!1!A!2!B!1!df efde|
faag fedf|gfga be~e2|fgfe d2dB|ABdf efdB||


